src/lib/packages/icons/src/assets/filled/book-alt.svg

<svg xmlns="http://www.w3.org/2000/svg" width="24" height="24" fill="none"><path fill="currentColor" d="M18.5 2.25H9.75v13.5h8.75c.14 0 .29-.02.42-.04.05-.01.09-.03.13-.04.07-.01.14-.03.2-.05v3.88c0 .41-.34.75-.75.75H7c-2.03 0-2.25-1.57-2.25-2.25 0-.68.22-2.25 2.25-2.25h1.25V2.25H7C4.58 2.25 3.25 3.58 3.25 6v12c0 2.24 1.51 3.75 3.75 3.75h11.5c1.24 0 2.25-1.01 2.25-2.25v-15c0-1.24-1.01-2.25-2.25-2.25Z"/></svg>

<svg width="24" height="24" viewBox="0 0 24 24" fill="none" xmlns="http://www.w3.org/2000/svg">
<path d="M18.5 2.25H9.75V15.75H18.5C18.64 15.75 18.7899 15.73 18.9199 15.71C18.9699 15.7 19.01 15.68 19.05 15.67C19.12 15.66 19.19 15.64 19.25 15.62V19.5C19.25 19.91 18.91 20.25 18.5 20.25H7C4.97 20.25 4.75 18.68 4.75 18C4.75 17.32 4.97 15.75 7 15.75H8.25V2.25H7C4.58 2.25 3.25 3.58 3.25 6V18C3.25 20.24 4.76 21.75 7 21.75H18.5C19.74 21.75 20.75 20.74 20.75 19.5V4.5C20.75 3.26 19.74 2.25 18.5 2.25Z" fill="currentColor"/>
</svg>
